ghost/admin/public/assets/icons/event-started-subscription--feature-attribution.svg

<svg width="24" height="24" viewBox="0 0 24 24" fill="none" xmlns="http://www.w3.org/2000/svg">
<path d="M9 6.12888V3.12891" stroke="#6C747D" stroke-width="1.71429" stroke-linecap="round" stroke-linejoin="round"/>
<path d="M6 14.1288C6 15.6288 7.33999 16.1288 8.99997 16.1288C10.66 16.1288 11.9999 16.1288 11.9999 14.1288C11.9999 11.1289 6 11.1289 6 8.12889C6 6.12891 7.33999 6.12891 8.99997 6.12891C10.66 6.12891 11.9999 6.8889 11.9999 8.12889" stroke="#6C747D" stroke-width="1.71429" stroke-linecap="round" stroke-linejoin="round"/>
<path d="M9 16.1289V19.1289" stroke="#6C747D" stroke-width="1.71429" stroke-linecap="round" stroke-linejoin="round"/>
<path d="M14 18.1104L15.8232 19.9336C15.9209 20.0312 16.0791 20.0312 16.1768 19.9336L20.5 15.6104" stroke="#30CF43" stroke-width="1.44" stroke-linecap="round"/>
</svg>

<svg width="24" height="24" viewBox="0 0 24 24" fill="none" xmlns="http://www.w3.org/2000/svg">
  <title>event-started-subscription--feature-attribution</title>
  <path d="M9 6.129v-3m-3 11c0 1.5 1.34 2 3 2s3 0 3-2c0-3-6-3-6-6 0-2 1.34-2 3-2s3 .76 3 2m-3 8v3" stroke="#6C747D" stroke-width="1.714" stroke-linecap="round" stroke-linejoin="round"/>
  <path d="m14 18.11 1.823 1.824a.25.25 0 0 0 .354 0L20.5 15.61" stroke="#30CF43" stroke-width="1.44" stroke-linecap="round"/>
</svg>
